X:1
T:Empire of Angels
T:Empire of Angels
T:(cover)
T:Thomas Bergersen
C:Thomas Bergersen
%%score { 1 | ( 2 3 ) }
L:1/8
Q:1/4=125
M:4/4
K:Eb
V:1 treble nm="Zongora" snm="Zon."
V:2 treble 
V:3 treble 
V:1
!f!"^cantabile" (c2 g2 g2 f2 | g3) (f gbge | f3) (e d3 e | f3) z z4 | (c2 e2 e2 c2 | d3) (e dcBd | %6
 (c4) c)(BGB |"Cten." =A2) z2 z4 | ([cc']2 [gg']2 [gg']2 [ff']2 | %9
 [gg']3) ([ff'] [gg'][bb'][gg'][ee'] | [ff']3) ([ee'] [dd']3 [ee'] | [ff']3) z z4 | %12
 ([cc']2 [ee']2 [ee']2 [cc']2 | [dd']3) ([ee'] [dd'][cc'][Bb][dd'] | %14
 (([cc']4) [cc']))([Bb][Gg][Bb] |"Cten." [=A=a]) z z2 z4 |: %16
"_con brio" ([cc']2 [gg']2 [gg']2 [ff']2 | [gg']3) ([ff'] [gg'][bb'][gg'][ee'] | %18
 [ff']3) ([ee'] [dd'][ee'][dd'][ee'] | [ff']3) z z4 | ([cc']2 [ee']2 [ee']2 [cc']2 | %21
 [dd']3) ([ee'] [dd'][cc'][Bb][dd'] | (([cc']4) [cc']))([Bb][Gg][Bb] |1 !tenuto![=A=a]2) z2 z4 :|2 %24
"^ritard."!>(! !tenuto![=Acf=a]2 z2 z4!>)! ||"^a tempo" (c2 g2 g2 f2 | g3) (f gbge | g3) (e d3 e | %28
 f3) z z4 |"^ritard." (c2 e2 e2 c2 | d3) (e dcBd | .c2)"^rubato" (cB F)(CB,F,) | z3 B, CF =A<c- | %33
 c8 |] %34
V:2
 [CEG]8 | [EGB]8 | [B,DF]8 | [CF]8 | [CE]8 | [DF]8 | [CF]2 [CF]2 [CF]2 [CF]2 | %7
 [CF]2 [CF]2 [CF]2 [CF]2 |!ff! [EG]8 | [GB]8 | [DF]8 | [CF]8 | [CE]8 | [DF]8 | %14
 [CF]2 [CF]2 [CF]2 [CF]2 | [CF]2 [CF]2 [CF]2 [CF]2 |: %16
[K:bass] ([C,,C,]2 .[E,G,C]2) .[E,G,C]2 .[E,G,C]2 | %17
 ([E,,,E,,]2 .[E,G,B,E]2) .[E,G,B,E]2 .[E,G,B,E]2 | ([B,,,B,,]2 .[F,A,D]2) .[F,A,D]2 .[F,A,D]2 | %19
 ([A,,,A,,]2 .[A,CF]2) .[A,CF]2 .[A,CF]2 | ([A,,,A,,]2 .[E,A,C]2) .[E,A,C]2 .[E,A,C]2 | %21
 ([B,,,B,,]2 .[F,B,D]2) .[F,B,D]2 .[F,B,D]2 | ([F,,,F,,]2 .[C,F,=A,]2) .[C,F,A,]2 .[C,F,A,]2 |1 %23
 ([F,,,F,,]2 .[C,F,=A,]2) .[E,,E,]2 .[D,,D,]2 :|2 [F,,,F,,]2 .[F,,C,F,]2 .[F,,C,F,]2 .[F,,C,F,]2 || %25
[K:treble] [EG]8 | [GB]8 | [DF]8 | [CF]8 | [CE]8 | [DF]8 | [F,CF]4 z4 |[K:bass] F,,C,F,- F,2 z z2 | %33
 z8 |] %34
V:3
 x8 | x8 | x8 | A,2 A,2 A,2 A,2 | A,2 A,2 A,2 A,2 | B,2 B,2 B,2 B,2 | F,8 | F,8 | C2 C2 C2 C2 | %9
 E2 E2 E2 E2 | B,2 B,2 B,2 B,2 | A,2 A,2 A,2 A,2 | A,2 A,2 A,2 A,2 | B,2 B,2 B,2 B,2 | F,8 | F,8 |: %16
[K:bass] x8 | x8 | x8 | x8 | x8 | x8 | x8 |1 x8 :|2 x8 ||[K:treble] C2 C2 C2 C2 | E2 E2 E2 E2 | %27
 B,2 B,2 B,2 B,2 | A,2 A,2 A,2 A,2 | A,2 A,2 A,2 A,2 | B,2 B,2 B,2 B,2 | x8 |[K:bass] x8 | x8 |] %34

